X:1
T:shortbilayernormalized1.output
L:1/16
K:C
g_e^cf ^cD,D,D,  |  D,D,D,D, D,D,D,D,  |  D,D,D,D, D,D,D,D,  |  D,D,D,D, D,D,D,D,  |  D,D,D,D, D,D,D,D,  |  D,D,D,D, D,D,D,D,  |  D,D,D,D, D,D,D,D,  |  D,D,D,D, D,D,D,D,  |  D,D,D,D, D,D,D,D,  |  D,D,D,D, D,D,D,D,  |  D,D,D,^c ^c^c^c^c  |  ^c^c^c^c ^c^c^c^c  |  ^c^c^c^c ^c^c^c^c  |  ^c^c^c^c ^c^c^c^c  |  ^c^c^c^c ^c^c^c^c  |  ^c^c^c^c ^c^c^c^c  |  ^c^c^c^c ^c^c^c^c  |  ^c^c^c^c ^c^c^c^c  |  ^c^c^c^c ^c^c^c^c  |  ^c^c^c^c ^c^c^c^c  |  ^c^c^c^c ^c^c^c^c  |  ^c^c^c^c ^c^c^c^c  |  ^c^c^c^c ^c^c^c^c  |  ^c^c^c^c ^c^c^c^c  |  ^c^c^c^c ^c^c^c^c  |  ^c^c^c^c ^c^c^c^c  |  ^c^c^c^c ^c^c^c^c  |  ^c^c^c^c ^c^c^c^c  |  ^c^c^c^c ^c^c^c^c  |  ^c^c^c^c ^c^c^c^c  |  ^c^c^c^c ^c^c^c^c  |  ^c^c^c^c ^c^c^c^c  |  ^c^c^c^c ^c^c^c^c  |  ^c^c^c^c ^c^c^c^c  |  ^c^c^c^c ^c^c^c^c  |  ^c^c^c^c ^c^c^c^c  |  ^c^c^c^c ^c^c^c^c  |  ^c^c^c^c ^c^c^c^c  |  ^c^c^c^c ^c^c^c^c  |  ^c^c^c^c ^c^c^c^c  |  ^c^c^c^c ^c^c^c^c  |  ^c^c^c^c ^c^c^c^c  |  ^c^c^c^c ^c^c^c^c  |  ^c^c^c^c ^c^c^c^c  |  ^c^c^c^c ^c^c^c^c  |  ^c^c^c^c ^c^c^c^c  |  ^c^c^c^c ^c^c^c^c  |  ^c^c^c^c ^c^c^c^c  |  ^c^c^c^c ^c^c^c^c  |  ^c^c^c^c ^c^c^c^c  |  ^c^c^c^c ^c^c^c^c  |  ^c^c^c^c ^c^c^c^c  |  ^c^c^c^c ^c^c^c^c  |  ^c^c^c^c ^c^c^c^c  |  ^c^c^c^c ^c^c^c^c  |  ^c^c^c^c ^c^c^c^c  |  ^c^c^c^c ^c^c^c^c  |  ^c^c^c^c ^c^c^c^c  |  ^c^c^c^c ^c^c^c^c  |  ^c^c^c^c ^c^c^c^c  |  ^c^c^c^c ^c^c^c^c  |  ^c^c^c^c ^c^c^c^c  |  ^c^c^c^c ^c^c^c^c  |  ^c^c^c^c ^c^c^c^c  |  ^c^c^c^c ^c^c^c^c  |  ^c^c^c^c ^c^c^c^c  |  ^c^c^c^c ^c^c^c^c  |  ^c^c^c^c ^c^c^c^c  |  ^c^c^c^c ^c^c^c^c  |  ^c^c^c^c ^c^c^c^c  |  ^c^c^c^c ^c^c^c^c  |  ^c^c^c^c ^c^c^c^c  |  ^c^c^c^c ^c^c^c^c  |  ^c^c^c^c ^c^c^c^c  |  ^c^c^c^c ^c^c^c^c  |  ^c^c^c^c ^c^c^c^c  |  ^c^c^c^c ^c^c^c^c  |  ^c^c^c^c ^c^c^c^c  |  ^c^c^c^c ^c^c^c^c  |  ^c^c^c^c ^c^c^c^c  |  ^c^c^c^c ^c^c^c^c  |  ^c^c^c^c ^c^c^c^c  |  ^c^c^c^c ^c^c^c^c  |  ^c^c^c^c ^c^c^c^c  |  ^c^c^c^c ^c^c^c^c  |  ^c^c^c^c ^c^c^c^c  |  ^c^c^c^c ^c^c^c^c  |  ^c^c^c^c ^c^c^c^c  |  ^c^c^c^c ^c^c^c^c  |  ^c^c^c^c ^c^c^c^c  |  ^c^c^c^c ^c^c^c^c  |  ^c^c^c^c ^c^c^c^c  |  ^c^c^c^c ^c^c^c^c  |  ^c^c^c^c ^c^c^c^c  |  ^c^c^c^c ^c^c^c^c  |  ^c^c^c^c ^c^c^c^c  |  ^c^c^c^c ^c^c^c^c  |  ^c^c^c^c ^c^c^c^c  |  ^c^c^c^c ^c^c^c^c  |  ^c^c^c^c ^c^c^c^c  |  ^c^c^c^c ^c^c^c^c  |  ^c^c^c^c ^c^c^c^c  |  ^c^c^c^c ^c^c^c^c  |  ^c^c^c^c ^c^c^c^c  |  ^c^c^c^c ^c^c^c^c  |  ^c^c^c^c ^c^c^c^c  |  ^c^c^c^c ^c^c^c^c  |  ^c^c^c^c ^c^c^c^c  |  ^c^c^c^c ^c^c^c^c  |  ^c^c^c^c ^c^c^c^c  |  ^c^c^c^c ^c^c^c^c  |  ^c^c^c^c ^c^c^c^c  |  ^c^c^c^c ^c^c^c^c  |  ^c^c^c^c ^c^c^c^c  |  ^c^c^c^c ^c^c^c^c  |  ^c^c^c^c ^c^c^c^c  |  ^c^c^c^c ^c^c^c^c  |  ^c^c^c^c ^c^c^c^c  |  ^c^c^c^c ^c^c^c^c  |  ^c^c^c^c ^c^c^c^c  |  ^c^c^c^c ^c^c^c^c  |  ^c^c^c^c ^c^c^c^c  |  ^c^c^c^c ^c^c^c^c  |  ^c^c^c^c ^c^c^c^c  |  ^c^c^c^c ^c^c^c^c  |    ]
